**kern	**text	**kern	**text	**kern	**text	**kern	**text	**kern	**text
*staff5	*staff5	*staff4	*staff4	*staff3	*staff3	*staff2	*staff2	*staff1	*staff1
*I"Basso	*	*I"Tenore	*	*I"Alto	*	*I"Soprano II	*	*I"Soprano I	*
=1-	=1-	=1-	=1-	=1-	=1-	=1-	=1-	=1-	=1-
*clefF4	*	*clefGv2	*	*clefGv2	*	*clefG2	*	*clefG2	*
*k[]	*	*k[]	*	*k[]	*	*k[]	*	*k[]	*
*met(c|)	*	*met(c|)	*	*met(c|)	*	*met(c|)	*	*met(c|)	*
*M2/2	*	*M2/2	*	*M2/2	*	*M2/2	*	*M2/2	*
[1C	Plan-	[1G	Plan-	[1c	Plan-	1r	.	[1e	Plan-
=2	=2	=2	=2	=2	=2	=2	=2	=2	=2
1C]	.	1G]	.	1c]	.	1r	.	1e]	.
=3	=3	=3	=3	=3	=3	=3	=3	=3	=3
1AA	-ge	1A	-ge	1c#	-ge	1r	.	1e	-ge
=4	=4	=4	=4	=4	=4	=4	=4	=4	=4
2r	.	2r	.	2r	.	1r	.	2r	.
[2D\	plan-	[2A/	plan-	[2d\	plan-	.	.	[2f/	plan-
=5	=5	=5	=5	=5	=5	=5	=5	=5	=5
2D\]	.	2A/]	.	2d\]	.	1r	.	2f/]	.
2BB/	-ge	2B\	-ge	2d#\	-ge	.	.	2f#/	-ge
=6	=6	=6	=6	=6	=6	=6	=6	=6	=6
1E	qua-	[1B	qua-	[1e	qua-	1r	.	[1g	qua-
=7	=7	=7	=7	=7	=7	=7	=7	=7	=7
1BB	-si	2B\]	.	2e\]	.	1r	.	2g/]	.
.	.	2B\	-si	2d#\	-si	.	.	2f#/	-si
=8	=8	=8	=8	=8	=8	=8	=8	=8	=8
1E	vir-	1G#	vir-	1B	vir-	1r	.	1e	vir-
=9	=9	=9	=9	=9	=9	=9	=9	=9	=9
1AA	-go,	1A	-go,	1c	-go,	1r	.	1e	-go,
=10	=10	=10	=10	=10	=10	=10	=10	=10	=10
1BB	plebs	2F#/	plebs	1B	plebs	1r	.	1d#	plebs
.	.	[2G/	.	.	.	.	.	.	.
=11	=11	=11	=11	=11	=11	=11	=11	=11	=11
!!linebreak:original
[1C	me-	4G/]	.	1G	me-	1r	.	[1e	me-
.	.	4G/	me-	.	.	.	.	.	.
.	.	4E/	.	.	.	.	.	.	.
.	.	4D/	.	.	.	.	.	.	.
=12	=12	=12	=12	=12	=12	=12	=12	=12	=12
1C]	.	1E	.	1A	.	1r	.	1e]	.
=13	=13	=13	=13	=13	=13	=13	=13	=13	=13
1BB	-a:	1F#	-a:	1B	-a:	1r	.	1d#	-a:
=14	=14	=14	=14	=14	=14	=14	=14	=14	=14
2r	.	2r	.	2r	.	1r	.	2r	.
[2E\	u-	[2G#/	u-	[2B\	u-	.	.	[2e/	u-
=15	=15	=15	=15	=15	=15	=15	=15	=15	=15
2E\]	.	2G#/]	.	2B\]	.	1r	.	2e/]	.
2AA/	-lu-	2A/	-lu-	2c\	-lu-	.	.	2e/	-lu-
=16	=16	=16	=16	=16	=16	=16	=16	=16	=16
1E	-la-	1G#	-la-	[1B	-la-	1r	.	1e	-la-
=17	=17	=17	=17	=17	=17	=17	=17	=17	=17
1BB	-te,	1F#	-te,	2B\]	.	1r	.	1d#	-te,
.	.	.	.	[2B\	-te,	.	.	.	.
=18	=18	=18	=18	=18	=18	=18	=18	=18	=18
1C	pa-	1E	pa-	2B\]	.	1r	.	1e	pa-
.	.	.	.	2A/	pa-	.	.	.	.
=19	=19	=19	=19	=19	=19	=19	=19	=19	=19
1BB	-sto-	1F#	-sto-	1B	-sto-	1r	.	1d#	-sto-
=20	=20	=20	=20	=20	=20	=20	=20	=20	=20
1E	-res,	1G#	-res,	1B	-res,	1r	.	1e	-res,
=21	=21	=21	=21	=21	=21	=21	=21	=21	=21
2r	.	2r	.	2r	.	1r	.	2r	.
2AA/	in	2A/	in	2c#\	in	.	.	2e/	in
=22	=22	=22	=22	=22	=22	=22	=22	=22	=22
!!pagebreak:original
1D	ci-	[1A	ci-	[1d	ci-	1r	.	[1f	ci-
=23	=23	=23	=23	=23	=23	=23	=23	=23	=23
1GG	-ne-	2A/]	.	2d\]	.	1r	.	2f/]	.
.	.	2G/	-ne-	2d\	-ne-	.	.	2d/	-ne-
=24	=24	=24	=24	=24	=24	=24	=24	=24	=24
1GG	-re	1G	-re	1B	-re	1r	.	1d	-re
=25	=25	=25	=25	=25	=25	=25	=25	=25	=25
1C	et	1G	et	1c	et	1r	.	1e	et
=26	=26	=26	=26	=26	=26	=26	=26	=26	=26
1D	ci-	1F	ci-	1A	ci-	1r	.	1f	ci-
=27	=27	=27	=27	=27	=27	=27	=27	=27	=27
[1C	-li-	[1A	-li-	[1c	-li-	1r	.	[1e	-li-
=28	=28	=28	=28	=28	=28	=28	=28	=28	=28
2C/]	.	2A/]	.	2c\]	.	1r	.	2e/]	.
2AA/	-ci-	2A/	-ci-	2c#\	-ci-	.	.	2e/	-ci-
=29	=29	=29	=29	=29	=29	=29	=29	=29	=29
[1AA	-o:	[1A	-o:	[1c#	-o:	1r	.	[1e	-o:
=30	=30	=30	=30	=30	=30	=30	=30	=30	=30
1AA]	.	1A]	.	1c#]	.	1r	.	1e]	.
=31||	=31||	=31||	=31||	=31||	=31||	=31||	=31||	=31||	=31||
1E	Qui-	1G	Qui-	1B	Qui-	1r	.	1e	Qui-
=32	=32	=32	=32	=32	=32	=32	=32	=32	=32
2E\	-a	2G/	-a	2B\	-a	1r	.	2e/	-a
[2C/	ve-	[2G/	ve-	[2c\	.	.	.	[2e/	ve-
=33	=33	=33	=33	=33	=33	=33	=33	=33	=33
2C/]	.	2G/]	.	2c\]	.	1r	.	2e/]	.
2GG/	-nit	2G/	-nit	2B\	ve-	.	.	2d/	-nit
=34	=34	=34	=34	=34	=34	=34	=34	=34	=34
!!linebreak:original
2GG/	di-	[1G	di-	2B\	-nit	1r	.	2d/	di-
[2C/	.	.	.	[2c\	di-	.	.	[2e/	.
=35	=35	=35	=35	=35	=35	=35	=35	=35	=35
2C/]	.	2G/]	.	2c\]	.	1r	.	2e/]	.
2C/	-es	2c\	-es	2e\	-es	.	.	2g/	-es
=36	=36	=36	=36	=36	=36	=36	=36	=36	=36
2F\	Do-	2c\	Do-	2c\	Do-	1r	.	2.a/	Do-
2F\	-mi-	2A/	-mi-	2d\	-mi-	.	.	.	.
.	.	.	.	.	.	.	.	4a/	-mi-
=37	=37	=37	=37	=37	=37	=37	=37	=37	=37
1E	-ni	2B\	-ni	1e	-ni	1r	.	1g	-ni
.	.	[2c\	ma-	.	.	.	.	.	.
=38	=38	=38	=38	=38	=38	=38	=38	=38	=38
1G	ma-	4c\]	.	1d	ma-	1r	.	1g	ma-
.	.	8B/L	.	.	.	.	.	.	.
.	.	8A/J	.	.	.	.	.	.	.
.	.	2B\	.	.	.	.	.	.	.
=39	=39	=39	=39	=39	=39	=39	=39	=39	=39
1C	-gna,	1c	-gna,	1e	-gna,	1r	.	1g	-gna,
=40	=40	=40	=40	=40	=40	=40	=40	=40	=40
1D	et	1F	et	1A	et	1r	.	2r	.
.	.	.	.	.	.	.	.	[2f/	et
=41	=41	=41	=41	=41	=41	=41	=41	=41	=41
2D\	a-	2G/	a-	2B\	a-	1r	.	2f/]	.
[2C/	-ma-	[2A/	-ma-	[2c\	-ma-	.	.	2e/	a-
=42	=42	=42	=42	=42	=42	=42	=42	=42	=42
2C/]	.	2A/]	.	2c\]	.	1r	.	1f	-ma-
2D\	-ra	2D/	-ra	2B\	-ra	.	.	.	.
=43	=43	=43	=43	=43	=43	=43	=43	=43	=43
1C	val-	2.G/	val-	[1c	val-	1r	.	1e	-ra
.	.	8F/L	.	.	.	.	.	.	.
.	.	8G/J	.	.	.	.	.	.	.
=44	=44	=44	=44	=44	=44	=44	=44	=44	=44
1AA	.	4A/	.	1c]	.	1r	.	1e	val-
.	.	4E/	.	.	.	.	.	.	.
.	.	[2A/	.	.	.	.	.	.	.
=45	=45	=45	=45	=45	=45	=45	=45	=45	=45
[1E	-de.	2A/]	.	[1B	-de.	1r	.	[1e	-de.
.	.	4G#/	.	.	.	.	.	.	.
.	.	4F#i/	.	.	.	.	.	.	.
=46	=46	=46	=46	=46	=46	=46	=46	=46	=46
1E]	.	1G#i	-de.	1B]	.	1r	.	1e]	.
!!linebreak:original
=47||	=47||	=47||	=47||	=47||	=47||	=47||	=47||	=47||	=47||
!!linebreak:original
1r	.	1r	.	1A	Ac-	1c	Ac-	1e	Ac-
=48	=48	=48	=48	=48	=48	=48	=48	=48	=48
1r	.	1r	.	2.A/	-cin-	2.c/	-cin-	2.e/	-cin-
.	.	.	.	4A/	-gi-	4c/	-gi-	4e/	-gi-
=49	=49	=49	=49	=49	=49	=49	=49	=49	=49
1r	.	1r	.	2A/	-te	2c/	-te	2e/	-te
.	.	.	.	2d\	vos,	2d/	vos,	2f/	vos,
=50	=50	=50	=50	=50	=50	=50	=50	=50	=50
1r	.	1r	.	2c\	sa-	2e/	sa-	2g/	sa-
.	.	.	.	2F/	-cer-	2f/	-cer-	2a/	-cer-
=51	=51	=51	=51	=51	=51	=51	=51	=51	=51
1r	.	1r	.	1c	-do-	1e	-do-	1g	-do-
=52	=52	=52	=52	=52	=52	=52	=52	=52	=52
1r	.	1r	.	1F	-tes,	1f	-tes,	1a	-tes,
=53	=53	=53	=53	=53	=53	=53	=53	=53	=53
1r	.	1r	.	2r	.	1r	.	1r	.
.	.	.	.	[2A/	et	.	.	.	.
=54	=54	=54	=54	=54	=54	=54	=54	=54	=54
1r	.	1r	.	2A/]	.	1r	.	1e	et
.	.	.	.	[2c\	plan-	.	.	.	.
=55	=55	=55	=55	=55	=55	=55	=55	=55	=55
1r	.	1r	.	2c\]	.	1r	.	1g	plan-
.	.	.	.	2B-\	.	.	.	.	.
=56	=56	=56	=56	=56	=56	=56	=56	=56	=56
!!pagebreak:original
1r	.	1r	.	1A	-gi-	2r	.	1f	-gi-
.	.	.	.	.	.	2a/	et	.	.
=57	=57	=57	=57	=57	=57	=57	=57	=57	=57
1r	.	1r	.	1A	-te,	[1cc	plan-	2e/	-te,
.	.	.	.	.	.	.	.	2e/	et
=58	=58	=58	=58	=58	=58	=58	=58	=58	=58
1r	.	1r	.	1r	.	2cc\]	.	[1g	plan-
.	.	.	.	.	.	2b-\	-gi-	.	.
=59	=59	=59	=59	=59	=59	=59	=59	=59	=59
1r	.	1r	.	2r	.	[1a	-te,	2g/]	.
.	.	.	.	2A/	et	.	.	2f/	-gi-
=60	=60	=60	=60	=60	=60	=60	=60	=60	=60
1r	.	1r	.	[1c	plan-	2a/]	.	1e	-te,
.	.	.	.	.	.	2e/	et	.	.
=61	=61	=61	=61	=61	=61	=61	=61	=61	=61
1r	.	1r	.	2c\]	.	1g	plan-	1r	.
.	.	.	.	2B-\	-gi-	.	.	.	.
=62	=62	=62	=62	=62	=62	=62	=62	=62	=62
1r	.	1r	.	1A	-te,	2f/	-gi-	1r	.
.	.	.	.	.	.	2e/	-te,	.	.
=63	=63	=63	=63	=63	=63	=63	=63	=63	=63
1r	.	1r	.	1d	mi-	1f	mi-	1a	mi-
=64	=64	=64	=64	=64	=64	=64	=64	=64	=64
1r	.	1r	.	1d	-ni-	1f	-ni-	2a/	-ni-
.	.	.	.	.	.	.	.	2f/	-stri
=65	=65	=65	=65	=65	=65	=65	=65	=65	=65
1r	.	1r	.	2c\	-stri	2e/	-stri	2g/	al-
.	.	.	.	2F/	al-	2a/	al-	[2f/	-ta-
=66	=66	=66	=66	=66	=66	=66	=66	=66	=66
1r	.	1r	.	1c	-ta-	1g	-ta-	2f/]	.
.	.	.	.	.	.	.	.	2e/	.
=67	=67	=67	=67	=67	=67	=67	=67	=67	=67
!!linebreak:original
1r	.	1r	.	1F	-ris,	1a	-ris,	1f	-ris,
=68	=68	=68	=68	=68	=68	=68	=68	=68	=68
1r	.	1r	.	2r	.	1r	.	2r	.
.	.	.	.	2c\	a-	.	.	2e/	a-
=69	=69	=69	=69	=69	=69	=69	=69	=69	=69
1r	.	1r	.	[1c	-sper-	[1g	a-	[1d	-sper-
=70	=70	=70	=70	=70	=70	=70	=70	=70	=70
1r	.	1r	.	2c\]	.	2g/]	.	2d/]	.
.	.	.	.	2B\	-gi-	[2g/	-sper-	2d/	-gi-
=71	=71	=71	=71	=71	=71	=71	=71	=71	=71
1r	.	1r	.	[1A	-te	2g/]	.	[1c	-te
.	.	.	.	.	.	2f/	-gi-	.	.
=72	=72	=72	=72	=72	=72	=72	=72	=72	=72
1r	.	1r	.	2A/]	.	1e	-te	2c/]	.
.	.	.	.	2G#/	vos	.	.	2B/	vos
=73	=73	=73	=73	=73	=73	=73	=73	=73	=73
1r	.	1r	.	1A	ci-	1e	vos	[1c	ci-
=74	=74	=74	=74	=74	=74	=74	=74	=74	=74
1r	.	1r	.	1F	-ne-	2.a/	ci-	2c/]	.
.	.	.	.	.	.	.	.	2d/	-ne-
.	.	.	.	.	.	4a/	-ne-	.	.
=75	=75	=75	=75	=75	=75	=75	=75	=75	=75
1r	.	1r	.	[1E	-re.	[1g#	-re.	[1e	-re.
=76	=76	=76	=76	=76	=76	=76	=76	=76	=76
1r	.	1r	.	1E]	.	1g#]	.	1e]	.
!!linebreak:original
=77||	=77||	=77||	=77||	=77||	=77||	=77||	=77||	=77||	=77||
!!linebreak:original
1E	Qui-	1G	Qui-	1B	Qui-	1e	Qui-	1e	Qui-
=78	=78	=78	=78	=78	=78	=78	=78	=78	=78
2E\	-a	2G/	-a	2B\	-a	2e/	-a	2e/	-a
[2C/	ve-	[2G/	ve-	[2c\	.	[2e/	ve-	[2e/	ve-
=79	=79	=79	=79	=79	=79	=79	=79	=79	=79
2C/]	.	2G/]	.	2c\]	.	2e/]	.	2e/]	.
2GG/	-nit	2G/	-nit	2B\	ve-	2d/	-nit	2d/	-nit
=80	=80	=80	=80	=80	=80	=80	=80	=80	=80
2GG/	di-	[1G	di-	2B\	-nit	2d/	di-	2d/	di-
[2C/	.	.	.	[2c\	di-	[2e/	.	[2e/	.
=81	=81	=81	=81	=81	=81	=81	=81	=81	=81
2C/]	.	2G/]	.	2c\]	.	2e/]	.	2e/]	.
2C/	-es	2c\	-es	2e\	-es	2g/	-es	2g/	-es
=82	=82	=82	=82	=82	=82	=82	=82	=82	=82
2F\	Do-	2c\	Do-	2c\	Do-	2.a/	Do-	2.a/	Do-
2F\	-mi-	2A/	-mi-	2d\	-mi-	.	.	.	.
.	.	.	.	.	.	4a/	-mi-	4a/	-mi-
=83	=83	=83	=83	=83	=83	=83	=83	=83	=83
1E	-ni	2B\	-ni	1e	-ni	1g	-ni	1g	-ni
.	.	[2c\	ma-	.	.	.	.	.	.
=84	=84	=84	=84	=84	=84	=84	=84	=84	=84
1G	ma-	4c\]	.	1d	ma-	1g	ma-	1g	ma-
.	.	8B/L	.	.	.	.	.	.	.
.	.	8A/J	.	.	.	.	.	.	.
.	.	2B\	.	.	.	.	.	.	.
=85	=85	=85	=85	=85	=85	=85	=85	=85	=85
1C	-gna,	1c	-gna,	1e	-gna,	[1g	-gna,	1g	-gna,
=86	=86	=86	=86	=86	=86	=86	=86	=86	=86
1D	et	1F	et	1A	et	2g/]	.	2r	.
.	.	.	.	.	.	[2f/	et	[2f/	et
=87	=87	=87	=87	=87	=87	=87	=87	=87	=87
2D\	a-	2G/	a-	2B\	a-	2f/]	.	2f/]	.
[2C/	-ma-	[2A/	-ma-	[2c\	-ma-	2e/	a-	2e/	a-
=88	=88	=88	=88	=88	=88	=88	=88	=88	=88
2C/]	.	2A/]	.	2c\]	.	1f	-ma-	1f	-ma-
2D\	-ra	2D/	-ra	2B\	-ra	.	.	.	.
=89	=89	=89	=89	=89	=89	=89	=89	=89	=89
1C	val-	2.G/	val-	[1c	val-	1e	-ra	1e	-ra
.	.	8F/L	.	.	.	.	.	.	.
.	.	8G/J	.	.	.	.	.	.	.
=90	=90	=90	=90	=90	=90	=90	=90	=90	=90
1AA	.	4A/	.	1c]	.	1e	val-	1e	val-
.	.	4E/	.	.	.	.	.	.	.
.	.	[2A/	.	.	.	.	.	.	.
=91	=91	=91	=91	=91	=91	=91	=91	=91	=91
[1E	-de.	2A/]	.	[1B	-de.	[1e	-de.	[1e	-de.
.	.	4G#/	.	.	.	.	.	.	.
.	.	4F#i/	.	.	.	.	.	.	.
=92	=92	=92	=92	=92	=92	=92	=92	=92	=92
1E]	.	1G#i	-de.	1B]	.	1e]	.	1e]	.
==	==	==	==	==	==	==	==	==	==
*-	*-	*-	*-	*-	*-	*-	*-	*-	*-
!!!OTL: Plange quasi virgo 
!!!COM: Ingegneri, Marc' Antonio
!!!CDT: ca. 1535/36-1592-07-01
!!!TXO: Latin
!!!ODT: 
!!!ARL: Klasztor OO. Paulinów na Jasnej Górze
!!!voices:	5
!!title: @{OTL}, @{GTL}, ed. @{ENC}
!!!pag:
!!!GTL: Responsoria in Hebdomada majore
!!!EFL: 
!!!YEM: Creative Commons CC/BY/NC/SA 4.0
!!!ENC: Marcin Konik
!!!END: 2015-0m-dd
!!!EED: Marcin Konik
!!!EEV: 
!!!ONB: Encoded in vim by Marcin Konik
!!!CharacterEncoding: utf-8
!!!RDF**kern: l=long note in original notation
!!!RDF**kern: i=editorial accidental
!!muse2ps: z14jc180F
